X: 5196
T: Britches Full Of Stitches, The
R: polka
M: 2/4
K: Gmajor
|:G>A BG|AG BG|G2 BG|AG E2|
G>A BG|AG Bd|G>A GE|ED D2:|
|:d>e dB|AG AB|d>e dB|AG E2|
d>e dB|AG AB|G>A GE|ED D2:|

